editor/icons/KeyboardPhysical.svg

<svg height="16" width="16" xmlns="http://www.w3.org/2000/svg"><g fill-opacity=".996"><path d="m4 2a1 1 0 0 0 -1 1v9.084c0 .506.448.916 1 .916h8c.552 0 1-.41 1-.916v-9.084a1 1 0 0 0 -1-1zm2.762 1.768h2.476l3.264 7.464h-2.604l-.502-1.3h-2.835l-.502 1.3h-2.561zm1.217 2.474-.725 1.878h1.45z" fill="#e0e0e0"/><path d="m27 2h7v14h-7z" fill="#fff"/><path d="m1 4v9a2 2 0 0 0 2 2h10a2 2 0 0 0 2-2v-9h-1v9a1 1 0 0 1 -1 1h-10a1 1 0 0 1 -1-1v-9z" fill="#e0e0e0"/></g></svg>

<svg xmlns="http://www.w3.org/2000/svg" width="16" height="16"><path d="M4 2a1 1 0 0 0-1 1v9.084c0 .506.448.916 1 .916h8c.552 0 1-.41 1-.916V3a1 1 0 0 0-1-1zm2.762 1.768h2.476l3.264 7.464H9.898l-.502-1.3H6.561l-.502 1.3H3.498zm1.217 2.474L7.254 8.12h1.45z" fill="#e0e0e0" fill-opacity=".996"/><path d="M27 2h7v14h-7z" fill="#fff" fill-opacity=".996"/><path fill="#e0e0e0" fill-opacity=".996" d="M1 4v9a2 2 0 0 0 2 2h10a2 2 0 0 0 2-2V4h-1v9a1 1 0 0 1-1 1H3a1 1 0 0 1-1-1V4z"/></svg>
